X:111
T:Make Your Breakfast (r)
B:NFID.239b
111make_yb
S:PT
L:1/8
M:C
R:reel
Q:360
K:D=C
dA~A2 dAFA|deef g2fe|dA~A2 dAFD|[E2G,2]E2 c2BA|
dA~A2 dAFA|deef g2fe|dA~A2 dAFD|ee2e c2BA:|
d2fd adfd|d2fd g2fe|d2fd adfd|ee2e c2BA|
d2fd adfd|d2fd g2fg|afge fdec|[E2G,2]E2 c2BA:|

